packages/core/src/svgs/tokens/mono/MAHA.svg

<svg width="24" height="24" viewBox="0 0 24 24" fill="none" xmlns="http://www.w3.org/2000/svg">
<path d="M21.5297 10.5365L17.1261 4.3874C16.9697 4.16394 16.7616 3.98163 16.5194 3.85606C16.2773 3.73049 16.0083 3.66536 15.7355 3.66627C15.1789 3.66627 14.6727 3.9274 14.3444 4.3874L13.8644 5.05688L13.386 4.3874C13.2296 4.16382 13.0212 3.98145 12.7791 3.85588C12.5368 3.73029 12.2677 3.66523 11.9948 3.66627C11.4381 3.66627 10.9326 3.9274 10.6042 4.3874L10.1309 5.04744L9.65695 4.3874C9.50036 4.16411 9.29216 3.98193 9.05004 3.85638C8.80792 3.73082 8.53908 3.66561 8.26634 3.66627C7.71188 3.66627 7.20351 3.9274 6.87517 4.3874L2.46945 10.5365C2.16414 10.9634 2 11.4751 2 12C2 12.5247 2.16414 13.0364 2.46945 13.4633L6.87517 19.6125C7.03203 19.8357 7.24046 20.0179 7.48273 20.1434C7.72502 20.269 7.99401 20.3342 8.26689 20.3335C8.82358 20.3335 9.32972 20.0725 9.65747 19.6125L12.0004 16.339L12.4831 17.0152C12.4855 17.0174 12.4877 17.0224 12.4877 17.0224L14.3433 19.6125C14.4999 19.8355 14.7079 20.0174 14.9498 20.143C15.1917 20.2685 15.4602 20.3338 15.7328 20.3335C16.2895 20.3335 16.7956 20.0725 17.1234 19.6125L21.5268 13.4633C21.8341 13.0373 21.9996 12.5255 22 12.0002C22.0004 11.4751 21.8361 10.963 21.5297 10.5365ZM11.3071 4.91077C11.3847 4.8006 11.4877 4.71078 11.6074 4.64888C11.7272 4.58699 11.8601 4.55485 11.9948 4.55519C12.2699 4.55519 12.522 4.68464 12.6838 4.91077L13.326 5.80858L11.9998 7.65865L10.6686 5.79913L11.3071 4.91077ZM8.9547 19.0868C8.87694 19.1972 8.77371 19.2871 8.65378 19.349C8.53385 19.4109 8.40074 19.4429 8.26578 19.4424C8.13101 19.4428 7.99813 19.4107 7.8784 19.3487C7.75869 19.2869 7.65563 19.197 7.57798 19.0868L3.17448 12.9377C2.9785 12.6638 2.87312 12.3356 2.87312 11.9988C2.87312 11.662 2.9785 11.3338 3.17448 11.0599L7.57742 4.91077C7.65519 4.80045 7.75841 4.71053 7.87834 4.64863C7.99828 4.58673 8.13137 4.55467 8.26634 4.55519C8.5408 4.55519 8.79303 4.68464 8.9547 4.91077L9.59253 5.80136L6.2007 10.5365C5.89517 10.9634 5.73108 11.4753 5.73148 12.0002C5.73189 12.5253 5.89676 13.0369 6.20293 13.4633L6.46182 13.8189L8.73525 17.0129C9.02414 17.4184 9.45356 17.6685 9.93191 17.7224L8.9547 19.0868ZM10.8142 16.4923C10.6503 16.7184 10.4009 16.8479 10.1258 16.8479C9.99102 16.8483 9.85802 16.8163 9.73824 16.7543C9.61832 16.6925 9.51526 16.6025 9.43748 16.4923L7.09962 13.2066H7.09685L6.90072 12.9355C6.70476 12.6616 6.59938 12.3334 6.59938 11.9966C6.59938 11.6598 6.70476 11.3316 6.90072 11.0577L10.1287 6.55083L11.4593 8.41035L9.93865 10.5338C9.6331 10.9608 9.46885 11.4726 9.46885 11.9978C9.46885 12.5228 9.6331 13.0347 9.93865 13.4616L11.4593 15.5845L10.8142 16.4923ZM12.0004 9.16371L13.3588 11.0588C13.5548 11.3327 13.6603 11.6611 13.6603 11.998C13.6603 12.3348 13.5548 12.6633 13.3588 12.9372L11.9998 14.8334L10.6414 12.9389C10.4453 12.6649 10.3397 12.3364 10.3397 11.9993C10.3397 11.6624 10.4453 11.3339 10.6414 11.0599L11.9998 9.16538L12.0004 9.16371ZM14.061 13.4606C14.3665 13.0335 14.5307 12.5218 14.5307 11.9969C14.5307 11.472 14.3665 10.9602 14.061 10.5332L12.5409 8.40979L13.8671 6.55972L17.0877 11.0588C17.2841 11.3333 17.3894 11.6624 17.389 11.9998C17.3885 12.3373 17.2822 12.666 17.085 12.94L16.57 13.6706L14.5644 16.489C14.4866 16.5993 14.3836 16.6891 14.2637 16.751C14.1439 16.8129 14.0109 16.8449 13.876 16.8446C13.6038 16.8446 13.3566 16.7179 13.1926 16.4962L12.5387 15.584L14.061 13.4606ZM20.828 12.9372L16.4244 19.0863C16.3466 19.1966 16.2434 19.2866 16.1235 19.3484C16.0036 19.4104 15.8705 19.4424 15.7355 19.4419C15.6007 19.4422 15.4678 19.4102 15.3482 19.3482C15.2284 19.2864 15.1253 19.1965 15.0477 19.0863L14.0699 17.7218C14.3085 17.6947 14.5386 17.6173 14.745 17.4945C14.9514 17.3719 15.1294 17.2068 15.2672 17.0101L16.9905 14.5894L16.9929 14.5918L17.2744 14.1917L17.605 13.7267L17.6028 13.7245L17.7901 13.4577C18.0954 13.0308 18.2595 12.5192 18.2595 11.9944C18.2595 11.4695 18.0954 10.9578 17.7901 10.531L14.4055 5.80858L15.0477 4.91021C15.1255 4.79997 15.2285 4.71009 15.3484 4.6482C15.4682 4.5863 15.6012 4.5542 15.736 4.55463C16.0111 4.55463 16.2628 4.68409 16.4251 4.91021L20.828 11.0588C21.0241 11.3327 21.1295 11.6611 21.1295 11.998C21.1295 12.3348 21.0241 12.6633 20.828 12.9372Z" fill="white"/>
<path d="M10.1234 17.7337C10.0567 17.7337 9.99165 17.7293 9.92502 17.7227L8.97998 19.0516L9.69388 19.5654L11.4218 17.1448C11.2605 17.3308 11.061 17.4796 10.837 17.5813C10.6129 17.6829 10.3694 17.735 10.1234 17.7337Z" fill="white"/>
<path d="M13.8707 17.7335C13.9374 17.7335 14.0025 17.7286 14.0696 17.7219L15.0141 19.0514L14.3007 19.5653L12.5818 17.1475C12.7414 17.3327 12.9393 17.4811 13.1618 17.5824C13.3844 17.6838 13.6263 17.735 13.8707 17.7335Z" fill="white"/>
<path d="M11.4541 15.5801L12.0041 16.3457L11.168 17.4913L10.6179 16.7468L11.4541 15.5801Z" fill="white"/>
<path d="M9.58946 5.79907L10.1324 6.55799L8.17335 9.30144L7.48999 8.74975L9.58946 5.79907Z" fill="white"/>
<path d="M11.4635 8.41064L11.9968 9.16901L10.7496 10.9302L10.0657 10.3758L11.4635 8.41064Z" fill="white"/>
<path d="M13.3257 5.80859L13.864 6.56251L12.5406 8.40981L12.0017 7.65645L13.3257 5.80859Z" fill="white"/>
</svg>

<svg xmlns="http://www.w3.org/2000/svg" width="24" height="24" fill="none" viewBox="0 0 24 24">
    <path fill="#fff" d="m21.53 10.537-4.404-6.15a1.69 1.69 0 0 0-1.39-.72 1.69 1.69 0 0 0-1.392.72l-.48.67-.478-.67a1.69 1.69 0 0 0-1.391-.72 1.69 1.69 0 0 0-1.39.72l-.474.66-.474-.66a1.7 1.7 0 0 0-1.39-.72c-.555 0-1.063.26-1.392.72l-4.406 6.15a2.52 2.52 0 0 0 0 2.926l4.406 6.15a1.7 1.7 0 0 0 1.392.72c.557 0 1.063-.26 1.39-.72L12 16.339l.483.676.005.007 1.855 2.59a1.7 1.7 0 0 0 1.39.722c.556 0 1.063-.261 1.39-.721l4.404-6.15a2.5 2.5 0 0 0 .003-2.926M11.307 4.91a.84.84 0 0 1 .688-.356.84.84 0 0 1 .689.356l.642.898L12 7.659l-1.331-1.86zM8.955 19.087a.84.84 0 0 1-.69.355.84.84 0 0 1-.687-.355l-4.404-6.15a1.61 1.61 0 0 1 0-1.877l4.403-6.15a.84.84 0 0 1 .69-.355.84.84 0 0 1 .688.356l.638.89L6.2 10.537a2.51 2.51 0 0 0 .002 2.926l.259.356 2.273 3.194c.29.405.719.656 1.197.71zm1.86-2.595a.842.842 0 0 1-1.378 0L7.1 13.207h-.003l-.196-.272a1.61 1.61 0 0 1 0-1.877l3.228-4.507 1.33 1.86-1.52 2.123a2.515 2.515 0 0 0 0 2.928l1.52 2.123zM12 9.164l1.359 1.895a1.61 1.61 0 0 1 0 1.878l-1.36 1.896-1.358-1.894a1.61 1.61 0 0 1 0-1.88L12 9.166zm2.061 4.297a2.52 2.52 0 0 0 0-2.928l-1.52-2.123 1.326-1.85 3.22 4.499a1.61 1.61 0 0 1-.002 1.881l-.515.73-2.006 2.819a.84.84 0 0 1-.688.356.84.84 0 0 1-.683-.349l-.654-.912zm6.767-.524-4.404 6.15a.84.84 0 0 1-.688.355.84.84 0 0 1-.688-.356l-.978-1.364a1.7 1.7 0 0 0 1.197-.712l1.724-2.42.002.002.281-.4.331-.465-.002-.002.187-.267a2.515 2.515 0 0 0 0-2.927l-3.384-4.722.642-.899a.84.84 0 0 1 .688-.355.84.84 0 0 1 .69.355l4.402 6.149a1.61 1.61 0 0 1 0 1.878"/>
    <path fill="#fff" d="M10.123 17.734q-.098-.001-.198-.011l-.945 1.329.714.513 1.728-2.42a1.71 1.71 0 0 1-1.299.589m3.747 0q.1 0 .2-.012l.944 1.33-.713.513-1.72-2.418a1.69 1.69 0 0 0 1.29.587"/>
    <path fill="#fff" d="m11.454 15.58.55.766-.836 1.145-.55-.744zM9.59 5.8l.542.758-1.959 2.743-.683-.551zm1.874 2.61.533.759-1.247 1.761-.684-.554zm1.862-2.601.538.754-1.323 1.847-.54-.754z"/>
</svg>
